assets/home/Sync.svg

<svg width="120" height="120" viewBox="0 0 120 120" fill="none" xmlns="http://www.w3.org/2000/svg">
<g clip-path="url(#clip0_5_141)">
<path fill-rule="evenodd" clip-rule="evenodd" d="M95.476 26.829C110.899 41.961 114.795 66.163 103.497 85.732C93.852 102.437 75.748 111.241 57.706 109.859C57.707 109.859 68.874 99.172 68.874 99.172C70.868 97.264 70.937 94.096 69.029 92.103C67.122 90.109 63.954 90.039 61.96 91.947L43.678 109.442C42.379 110.685 41.848 112.529 42.285 114.273C42.723 116.016 44.063 117.39 45.795 117.872C70.901 124.855 98.531 114.334 112.157 90.732C125.783 67.13 121.081 37.942 102.48 19.691C100.51 17.758 97.342 17.788 95.409 19.758C93.476 21.728 93.506 24.896 95.476 26.829Z" fill="url(#paint0_linear_5_141)"/>
<path fill-rule="evenodd" clip-rule="evenodd" d="M24.5137 93.1886C9.09065 78.0556 5.19465 53.8546 16.4927 34.2856C26.1377 17.5806 44.2417 8.77661 62.2837 10.1586L51.1157 20.8456C49.1217 22.7536 49.0527 25.9206 50.9607 27.9146C52.8687 29.9086 56.0357 29.9786 58.0297 28.0706L76.3117 10.5756C77.6107 9.33261 78.1427 7.48861 77.7047 5.74461C77.2667 4.00161 75.9267 2.62761 74.1947 2.14561C49.0887 -4.83739 21.4597 5.68361 7.83265 29.2856C-5.79335 52.8866 -1.09135 82.0756 17.5096 100.327C19.4797 102.26 22.6477 102.23 24.5807 100.26C26.5137 98.2896 26.4837 95.1216 24.5137 93.1886Z" fill="url(#paint1_linear_5_141)"/>
</g>
<defs>
<linearGradient id="paint0_linear_5_141" x1="73.0563" y1="68.1572" x2="107.827" y2="88.2319" gradientUnits="userSpaceOnUse">
<stop stop-color="#A83AFE"/>
<stop offset="1" stop-color="#6E59FE"/>
</linearGradient>
<linearGradient id="paint1_linear_5_141" x1="23.8551" y1="9.01852" x2="44.855" y2="81.0185" gradientUnits="userSpaceOnUse">
<stop stop-color="#FF0CF5"/>
<stop offset="1" stop-color="#0575E6"/>
</linearGradient>
<clipPath id="clip0_5_141">
<rect width="120" height="120" fill="white"/>
</clipPath>
</defs>
</svg>

<svg xmlns="http://www.w3.org/2000/svg" width="120" height="120" fill="none" xmlns:v="https://vecta.io/nano"><g clip-path="url(#C)" fill-rule="evenodd"><path d="M95.476 26.829c15.423 15.132 19.319 39.334 8.021 58.903-9.645 16.705-27.749 25.509-45.791 24.127.001 0 11.168-10.687 11.168-10.687 1.994-1.908 2.063-5.076.155-7.069s-5.075-2.064-7.069-.156l-18.282 17.495c-1.299 1.243-1.83 3.087-1.393 4.831a5 5 0 0 0 3.51 3.599c25.106 6.983 52.736-3.538 66.362-27.14s8.924-52.79-9.677-71.041c-1.97-1.933-5.138-1.903-7.071.067s-1.903 5.138.067 7.071z" fill="url(#A)"/><path d="M24.514 93.189C9.091 78.056 5.195 53.855 16.493 34.286c9.645-16.705 27.749-25.509 45.791-24.127L51.116 20.846c-1.994 1.908-2.063 5.075-.155 7.069s5.075 2.064 7.069.156l18.282-17.495a5 5 0 0 0-2.117-8.43C49.089-4.837 21.46 5.684 7.833 29.286s-8.924 52.79 9.677 71.041c1.97 1.933 5.138 1.903 7.071-.067s1.903-5.138-.067-7.071z" fill="url(#B)"/></g><defs><linearGradient id="A" x1="73.056" y1="68.157" x2="107.827" y2="88.232" gradientUnits="userSpaceOnUse"><stop stop-color="#a83afe"/><stop offset="1" stop-color="#6e59fe"/></linearGradient><linearGradient id="B" x1="23.855" y1="9.019" x2="44.855" y2="81.019" gradientUnits="userSpaceOnUse"><stop stop-color="#ff0cf5"/><stop offset="1" stop-color="#0575e6"/></linearGradient><clipPath id="C"><path fill="#fff" d="M0 0h120v120H0z"/></clipPath></defs></svg>
